X:1
T:Title
L:1/8
M:4/4
I:linebreak $
K:D
V:1 treble nm="iddle" snm="iddle"
V:1
 fg | a2 af a2 af | a2 aa b2 a2 | g2 ge g2 ge | g2 ge a2 g2 |$ e f2 g fefe | defg a2 a2 | %7
 AB=cd egfe | d2 dd d2 ::$ (3ABc | d2 f2 d2 f2 | defg a2 a2 | A2 cB A2 cB | ABcd egfe |$ %14
 d2 f2 d2 f2 | defg a2 a2 | ABcd egfe | d2 dd d2 :| %18
